X:49
T:Midnight Ramble THO3.049, The
O:England;London
M:C|
L:1/8
Z:vmp. Peter Dunk 2011.from a transcription by Fynn Titford-Mock 2006-9
B:Thompson's Compleat Collection of 200 Favourite Country Dances Vol. III.1765-72
Q:1/2=110
K:D
Bc|d4A4|F3 E D2F2|E2c2E2c2|d2A2 DEFD|\
d4A4|F3 E D2A2|B2G2F2D2|D/D/D D2z2:|
|:ag|f3 e d2a2|f2d2 fgaf|e3 d c2g2|e2c2 efge|\
f2d2g2e2|a2f2b2g2|f2d2e2f2|d/d/d d2z2:|

